svg/u1fae6.svg

<svg viewBox="0 0 128 128" xmlns="http://www.w3.org/2000/svg" xmlns:xlink="http://www.w3.org/1999/xlink">
  <g>
    <path d="M81.86,35.45c-9.09-1.02-14.68,2.81-16.34,3.73c-0.56,0.31-0.96,0.49-1.31,0.58 c-0.34-0.09-0.75-0.27-1.31-0.58c-1.66-0.92-7.28-4.97-16.34-3.73C28.75,37.89,12.02,56.1,4.89,67.2 c-1.66,2.59-0.92,6.04,1.66,7.72c3.19,2.07,9.82,3.33,15.71,5.22c17.92,5.75,48.15,24.1,68.89,19.54 c23.71-5.21,27.54-22.7,30.72-24.76c0,0,3.33-5.12,1.66-7.72C116.41,56.1,101.27,37.62,81.86,35.45z" fill="#EF4D8F"/>
    <path d="M73.46,74.29c-3.12-0.67-15.69-1.37-31.05,0.09c-6.59,0.63-14.4,0.38-16.02-1.73 c-1.62-2.11,0.14-3.49,6.74-4.85C53.44,63.62,72.92,74.18,73.46,74.29z" fill="#C51162"/>
    <path d="M40.93,65.04c-11.02,4.88-26.38,5.21-26.04,3.8c0.28-1.16,7.38-1.39,15.22-4.86 c8.77-3.89,19.74-8.75,34.01-8.75c14.61,0,26.25,5.87,35.07,9.81c4.2,1.88,8.44,3.11,11.36,3.83c1.25,0.31,1.44,2,0.3,2.59 l-14.09,7.22c0,0-7.41,3.26-13.88,0S47.85,61.98,40.93,65.04z" fill="#3E2723"/>
    <path d="M101.27,65.93c0,0-0.01-0.01-0.01-0.01c-0.69-0.28-1.39-0.56-2.08-0.87 c-8.82-3.94-20.46-9.81-35.07-9.81c-14.27,0-25.24,4.86-34.01,8.75c-0.46,0.2-0.9,0.4-1.35,0.6l0,0c0,0,2.29,8.21,35.99,8.21 S101.27,65.93,101.27,65.93z" fill="#BDBDBD"/>
    <path d="M101.27,65.93c0,0-0.01-0.01-0.01-0.01c-0.69-0.28-22.54-7.11-37.15-7.11 c-14.27,0-34.91,5.57-35.36,5.77l0,0c0,0,2.29,8.21,35.99,8.21S101.27,65.93,101.27,65.93z" fill="#FFFFFF"/>
    <path d="M79.85,83.27c2.51,0.88,6.65,2.03,10.29,2.18c1.35,0.06,4.51-0.16,4.37,1.88 c-0.22,3.09-10.81,7.1-19.25,4.48c-8.57-2.66-14.4-9.04-11.26-10.36C67.11,80.14,74.22,81.29,79.85,83.27z" fill="#FF80AB"/>
  </g>
</svg>

<svg viewBox="0 0 128 128" xmlns="http://www.w3.org/2000/svg">
  <defs/>
  <path d="M81.86,35.45 C72.77,34.43 67.18,38.26 65.52,39.18 C64.96,39.49 64.56,39.67 64.21,39.76 C63.87,39.67 63.46,39.49 62.9,39.18 C61.24,38.26 55.62,34.21 46.56,35.45 C28.75,37.89 12.02,56.1 4.89,67.2 C3.23,69.79 3.97,73.24 6.55,74.92 C9.74,76.99 16.37,78.25 22.26,80.14 C40.18,85.89 70.41,104.24 91.15,99.68 C114.86,94.47 118.69,76.98 121.87,74.92 C121.87,74.92 125.2,69.8 123.53,67.2 C116.41,56.1 101.27,37.62 81.86,35.45 Z" fill="#EF4D8F"/>
  <path d="M73.46,74.29 C70.34,73.62 57.77,72.92 42.41,74.38 C35.82,75.01 28.01,74.76 26.39,72.65 C24.77,70.54 26.53,69.16 33.13,67.8 C53.44,63.62 72.92,74.18 73.46,74.29 Z" fill="#C51162"/>
  <path d="M40.93,65.04 C29.91,69.92 14.55,70.25 14.89,68.84 C15.17,67.68 22.27,67.45 30.11,63.98 C38.88,60.09 49.85,55.23 64.12,55.23 C78.73,55.23 90.37,61.1 99.19,65.04 C103.39,66.92 107.63,68.15 110.55,68.87 C111.8,69.18 111.99,70.87 110.85,71.46 L96.76,78.68 C96.76,78.68 89.35,81.94 82.88,78.68 C76.41,75.42 47.85,61.98 40.93,65.04 Z" fill="#3E2723"/>
  <path d="M101.27,65.93 C101.27,65.93 101.26,65.92 101.26,65.92 C100.57,65.64 99.87,65.36 99.18,65.05 C90.36,61.11 78.72,55.24 64.11,55.24 C49.84,55.24 38.87,60.1 30.1,63.99 C29.64,64.19 29.2,64.39 28.75,64.59 L28.75,64.59 C28.75,64.59 31.04,72.8 64.74,72.8 C98.44,72.8 101.27,65.93 101.27,65.93 Z" fill="#BDBDBD"/>
  <path d="M101.27,65.93 C101.27,65.93 101.26,65.92 101.26,65.92 C100.57,65.64 78.72,58.81 64.11,58.81 C49.84,58.81 29.2,64.38 28.75,64.58 L28.75,64.58 C28.75,64.58 31.04,72.79 64.74,72.79 C98.44,72.79 101.27,65.93 101.27,65.93 Z" fill="#FFFFFF"/>
  <path d="M79.85,83.27 C82.36,84.15 86.5,85.3 90.14,85.45 C91.49,85.51 94.65,85.29 94.51,87.33 C94.29,90.42 83.7,94.43 75.26,91.81 C66.69,89.15 60.86,82.77 64,81.45 C67.11,80.14 74.22,81.29 79.85,83.27 Z" fill="#FF80AB"/>
</svg>
